img/new-access/fun-media.svg

<svg width="74" height="56" viewBox="0 0 74 56" fill="none" xmlns="http://www.w3.org/2000/svg">
<g clip-path="url(#clip0_6983_79262)">
<path d="M42.7762 44.7082H0.696741C0.418683 44.7082 0.140625 44.5414 0.140625 44.2079V0.591587C0.140625 0.258001 0.418683 0.0078125 0.696741 0.0078125H65.2062C65.577 0.0078125 65.7623 0.258001 65.7623 0.591587V33.5331C65.7623 33.8667 65.4843 34.1169 65.2062 34.1169C64.8355 34.1169 64.6501 33.8667 64.6501 33.5331V1.09196H1.34554V43.6241H42.7762C43.1469 43.6241 43.3323 43.8743 43.3323 44.2079C43.3323 44.5414 43.0543 44.7082 42.7762 44.7082Z" fill="#C47A2D"/>
<path d="M65.2062 10.9332H0.696741C0.325997 10.9332 0.140625 10.683 0.140625 10.3494C0.140625 10.0158 0.418683 9.76562 0.696741 9.76562H65.2062C65.577 9.76562 65.7623 10.0158 65.7623 10.3494C65.855 10.683 65.577 10.9332 65.2062 10.9332Z" fill="#C47A2D"/>
<path d="M7.27596 7.5163C5.88567 7.5163 4.77344 6.59894 4.77344 5.34799C4.77344 4.18044 5.88567 3.17969 7.27596 3.17969C8.66625 3.17969 9.6858 4.18044 9.6858 5.34799C9.6858 6.59894 8.57356 7.5163 7.27596 7.5163ZM7.27596 4.26384C6.62716 4.26384 6.07104 4.76422 6.07104 5.34799C6.07104 5.93177 6.62716 6.43214 7.27596 6.43214C7.92476 6.43214 8.48088 5.93177 8.48088 5.34799C8.48088 4.76422 7.92476 4.26384 7.27596 4.26384Z" fill="#C47A2D"/>
<path d="M15.2458 7.5163C13.8555 7.5163 12.8359 6.51554 12.8359 5.34799C12.8359 4.18044 13.9482 3.17969 15.2458 3.17969C16.5434 3.17969 17.6556 4.18044 17.6556 5.34799C17.6556 6.59894 16.5434 7.5163 15.2458 7.5163ZM15.2458 4.26384C14.597 4.26384 14.0409 4.76422 14.0409 5.34799C14.0409 5.93177 14.597 6.43214 15.2458 6.43214C15.8946 6.43214 16.4507 5.93177 16.4507 5.34799C16.4507 4.76422 15.8946 4.26384 15.2458 4.26384Z" fill="#C47A2D"/>
<path d="M65.2079 5.92536H29.4311C29.0604 5.92536 28.875 5.67517 28.875 5.34159C28.875 5.008 29.1531 4.75781 29.4311 4.75781H65.2079C65.5787 4.75781 65.764 5.008 65.764 5.34159C65.8567 5.67517 65.5787 5.92536 65.2079 5.92536Z" fill="#C47A2D"/>
<path d="M71.4138 55.4701H44.1641C43.0519 55.4701 42.125 54.6362 42.125 53.6354V34.7878C42.125 33.7871 43.0519 32.9531 44.1641 32.9531H71.4138C72.526 32.9531 73.4529 33.7871 73.4529 34.7878V53.6354C73.4529 54.6362 72.526 55.4701 71.4138 55.4701ZM44.1641 34.0373C43.7007 34.0373 43.3299 34.3709 43.3299 34.7878V53.6354C43.3299 54.0524 43.7007 54.386 44.1641 54.386H71.4138C71.8772 54.386 72.248 54.0524 72.248 53.6354V34.7878C72.248 34.3709 71.8772 34.0373 71.4138 34.0373H44.1641V34.0373Z" fill="#C47A2D"/>
<path d="M53.0639 49.4636C52.9712 49.4636 52.8786 49.4636 52.7859 49.3803C52.6005 49.2969 52.5078 49.1301 52.5078 48.8799V39.5395C52.5078 39.3727 52.6005 39.2059 52.7859 39.0391C52.9712 38.9557 53.1566 38.9557 53.342 39.0391L63.8155 43.7093C64.0009 43.7927 64.1863 43.9595 64.1863 44.2097C64.1863 44.3765 64.0936 44.6267 63.8155 44.7101L53.342 49.3803C53.2493 49.4636 53.1566 49.4636 53.0639 49.4636ZM53.62 40.3735V48.0459L62.1472 44.2097L53.62 40.3735Z" fill="#C47A2D"/>
<path d="M30.2621 17.5191H7.36862C6.99787 17.5191 6.8125 17.2689 6.8125 16.9353C6.8125 16.6018 7.09056 16.3516 7.36862 16.3516H30.2621C30.6328 16.3516 30.8182 16.6018 30.8182 16.9353C30.8182 17.2689 30.5401 17.5191 30.2621 17.5191Z" fill="#C47A2D"/>
<path d="M30.263 21.605H15.6186C15.2479 21.605 15.0625 21.3549 15.0625 21.0213C15.0625 20.6877 15.3406 20.4375 15.6186 20.4375H30.263C30.6338 20.4375 30.8191 20.6877 30.8191 21.0213C30.8191 21.3549 30.5411 21.605 30.263 21.605Z" fill="#C47A2D"/>
<path d="M23.1252 25.691H7.36862C6.99787 25.691 6.8125 25.4408 6.8125 25.1072C6.8125 24.7736 7.09056 24.5234 7.36862 24.5234H23.1252C23.496 24.5234 23.6814 24.7736 23.6814 25.1072C23.774 25.4408 23.496 25.691 23.1252 25.691Z" fill="#C47A2D"/>
<path d="M30.2621 29.6988H7.36862C6.99787 29.6988 6.8125 29.4486 6.8125 29.115C6.8125 28.7814 7.09056 28.5312 7.36862 28.5312H30.2621C30.6328 28.5312 30.8182 28.7814 30.8182 29.115C30.8182 29.4486 30.5401 29.6988 30.2621 29.6988Z" fill="#C47A2D"/>
<path d="M28.8765 25.691H24.7983C24.4276 25.691 24.2422 25.4408 24.2422 25.1072C24.2422 24.7736 24.5202 24.5234 24.7983 24.5234H28.8765C29.2472 24.5234 29.4326 24.7736 29.4326 25.1072C29.4326 25.4408 29.1545 25.691 28.8765 25.691Z" fill="#C47A2D"/>
<path d="M13.0249 21.605H8.94674C8.576 21.605 8.39062 21.3549 8.39062 21.0213C8.39062 20.6877 8.66868 20.4375 8.94674 20.4375H13.0249C13.3957 20.4375 13.581 20.6877 13.581 21.0213C13.6737 21.3549 13.3957 21.605 13.0249 21.605Z" fill="#C47A2D"/>
</g>
<defs>
<clipPath id="clip0_6983_79262">
<rect x="0.140625" y="0.0078125" width="73.3147" height="55.4585" fill="white"/>
</clipPath>
</defs>
</svg>

<svg width="74" height="56" fill="none" xmlns="http://www.w3.org/2000/svg"><g clip-path="url(#clip0_6983_79262)" fill="#C47A2D"><path d="M42.776 44.708H.696c-.277 0-.555-.167-.555-.5V.592A.582.582 0 01.697.008h64.51c.37 0 .555.25.555.584v32.941a.582.582 0 01-.556.584c-.37 0-.556-.25-.556-.584V1.092H1.346v42.532h41.43c.37 0 .556.25.556.584 0 .333-.278.5-.556.5z"/><path d="M65.206 10.933H.696c-.37 0-.555-.25-.555-.584 0-.333.278-.583.556-.583h64.51c.37 0 .555.25.555.583.093.334-.185.584-.556.584zM7.276 7.516c-1.39 0-2.503-.917-2.503-2.168 0-1.168 1.113-2.168 2.503-2.168 1.39 0 2.41 1 2.41 2.168 0 1.25-1.112 2.168-2.41 2.168zm0-3.252c-.649 0-1.205.5-1.205 1.084 0 .584.556 1.084 1.205 1.084s1.205-.5 1.205-1.084c0-.584-.556-1.084-1.205-1.084zm7.97 3.252c-1.39 0-2.41-1-2.41-2.168 0-1.168 1.112-2.168 2.41-2.168 1.297 0 2.41 1 2.41 2.168 0 1.25-1.113 2.168-2.41 2.168zm0-3.252c-.649 0-1.205.5-1.205 1.084 0 .584.556 1.084 1.205 1.084s1.205-.5 1.205-1.084c0-.584-.556-1.084-1.205-1.084zm49.962 1.661H29.43c-.37 0-.556-.25-.556-.583 0-.334.278-.584.556-.584h35.777c.37 0 .556.25.556.584.093.333-.185.583-.556.583zm6.206 49.545h-27.25c-1.112 0-2.039-.834-2.039-1.835V34.788c0-1 .927-1.835 2.04-1.835h27.249c1.112 0 2.039.834 2.039 1.835v18.847c0 1.001-.927 1.835-2.04 1.835zm-27.25-21.433c-.463 0-.834.334-.834.75v18.848c0 .417.37.751.834.751h27.25c.463 0 .834-.334.834-.75V34.787c0-.417-.37-.75-.834-.75h-27.25z"/><path d="M53.064 49.464c-.093 0-.185 0-.278-.084-.186-.083-.278-.25-.278-.5v-9.34c0-.167.092-.334.278-.5a.65.65 0 01.556 0l10.474 4.67c.185.083.37.25.37.5a.52.52 0 01-.37.5l-10.474 4.67c-.093.084-.185.084-.278.084zm.556-9.09v7.672l8.527-3.836-8.527-3.837zM30.262 17.52H7.37c-.371 0-.556-.251-.556-.585 0-.333.278-.583.556-.583h22.893c.37 0 .556.25.556.583a.582.582 0 01-.556.584zm.001 4.085H15.619c-.371 0-.556-.25-.556-.584 0-.333.278-.584.556-.584h14.644c.37 0 .556.25.556.584a.582.582 0 01-.556.584zm-7.138 4.086H7.37c-.371 0-.556-.25-.556-.584 0-.333.278-.584.556-.584h15.756c.371 0 .556.25.556.584.093.334-.185.584-.556.584zm7.137 4.008H7.37c-.371 0-.556-.25-.556-.584 0-.334.278-.584.556-.584h22.893c.37 0 .556.25.556.584a.582.582 0 01-.556.584zm-1.385-4.008h-4.079c-.37 0-.556-.25-.556-.584 0-.333.278-.584.556-.584h4.079c.37 0 .556.25.556.584a.582.582 0 01-.556.584zm-15.852-4.086H8.947c-.371 0-.556-.25-.556-.584 0-.333.278-.584.556-.584h4.078c.37 0 .556.25.556.584.093.334-.185.584-.556.584z"/></g><defs><clipPath id="clip0_6983_79262"><path fill="#fff" d="M.141.008h73.315v55.459H.141z"/></clipPath></defs></svg>
